img/safe_deal.svg

<?xml version="1.0" encoding="UTF-8"?>
<svg viewBox="0 0 914 184" xmlns="http://www.w3.org/2000/svg">
<path d="m424.55 127.91v-35.52h-16.258v1.5181c0 3.7395-0.217 7.3238-0.644 10.751-0.43 3.429-0.993 6.601-1.695 9.522-0.703 2.921-1.444 5.549-2.224 7.887-0.779 2.337-1.52 4.285-2.221 5.842h23.042zm-46.553 0h7.252c0.857-1.712 1.735-3.856 2.632-6.426 0.896-2.571 1.714-5.452 2.457-8.647 0.739-3.192 1.344-6.659 1.812-10.399 0.468-3.739 0.702-7.6713 0.702-11.801v-10.633h48.308v47.906h7.837v29.094h-15.557v-16.591h-39.886v16.591h-15.557v-29.094z" clip-rule="evenodd" fill="#FF8300" fill-rule="evenodd"/>
<path d="m485.94 129.53c2.782 0 5.118-0.548 7.011-1.647 1.893-1.098 3.4-2.568 4.521-4.412 1.118-1.842 1.911-3.921 2.374-6.235 0.464-2.312 0.696-4.686 0.696-7.118 0-2.43-0.232-4.824-0.696-7.177-0.463-2.352-1.256-4.4302-2.374-6.2346-1.121-1.8033-2.628-3.2738-4.521-4.4117-1.893-1.1367-4.229-1.7062-7.011-1.7062-2.781 0-5.099 0.5695-6.953 1.7062-1.855 1.1379-3.343 2.6084-4.461 4.4117-1.121 1.8044-1.913 3.8826-2.376 6.2346-0.464 2.353-0.695 4.747-0.695 7.177 0 2.432 0.231 4.806 0.695 7.118 0.463 2.314 1.255 4.393 2.376 6.235 1.118 1.844 2.606 3.314 4.461 4.412 1.854 1.099 4.172 1.647 6.953 1.647zm0 12.47c-4.714 0-8.963-0.746-12.748-2.234-3.785-1.49-7.03-3.627-9.734-6.413-2.705-2.782-4.791-6.136-6.258-10.058-1.468-3.922-2.202-8.313-2.202-13.177 0-4.862 0.734-9.275 2.202-13.235 1.467-3.9594 3.553-7.3327 6.258-10.118 2.704-2.7836 5.949-4.9421 9.734-6.4707 3.785-1.5297 8.034-2.2946 12.748-2.2946 4.712 0 8.982 0.7649 12.805 2.2946 3.826 1.5286 7.088 3.6871 9.794 6.4707 2.703 2.7848 4.789 6.1581 6.257 10.118 1.467 3.9602 2.202 8.3732 2.202 13.235 0 4.864-0.735 9.255-2.202 13.177-1.468 3.922-3.554 7.276-6.257 10.058-2.706 2.786-5.968 4.923-9.794 6.413-3.823 1.488-8.093 2.234-12.805 2.234z" clip-rule="evenodd" fill="#FF8300" fill-rule="evenodd"/>
<path d="m556.71 142c-4.628 0-8.823-0.765-12.588-2.293-3.765-1.53-6.981-3.666-9.648-6.413-2.666-2.744-4.745-6.019-6.235-9.823s-2.235-7.98-2.235-12.529c0-4.707 0.687-9.078 2.059-13.119 1.371-4.0387 3.391-7.5292 6.059-10.47 2.665-2.9411 5.921-5.2357 9.764-6.8815 3.842-1.647 8.236-2.4711 13.177-2.4711 3.607 0 7.077 0.4701 10.412 1.4114 3.332 0.9413 6.312 2.3739 8.941 4.2944 2.627 1.9229 4.764 4.3347 6.412 7.2356 1.647 2.902 2.589 6.2753 2.823 10.118h-16.352c-1.099-6.98-5.217-10.47-12.353-10.47-2.668 0-4.903 0.6086-6.706 1.8234-1.806 1.216-3.275 2.7849-4.412 4.7053-1.138 1.9229-1.942 4.0588-2.412 6.4128-0.47 2.353-0.706 4.628-0.706 6.822 0 2.198 0.236 4.433 0.706 6.707 0.47 2.275 1.235 4.334 2.294 6.177s2.49 3.353 4.294 4.53c1.803 1.175 4.001 1.764 6.589 1.764 4 0 7.077-1.118 9.235-3.353 2.156-2.236 3.51-5.236 4.058-9h16.118c-1.099 8.079-4.235 14.235-9.412 18.471-5.176 4.235-11.804 6.352-19.882 6.352z" clip-rule="evenodd" fill="#FF8300" fill-rule="evenodd"/>
<path d="M610.104 92.4179H590V80H647V92.4179H626.896V140H610.104V92.4179Z" clip-rule="evenodd" fill="#FF8300" fill-rule="evenodd"/>
<path d="m678.26 130.94c3.333 0 5.911-0.548 7.737-1.647 1.826-1.097 3.174-2.412 4.048-3.941 0.873-1.53 1.408-3.078 1.607-4.648 0.198-1.567 0.299-2.822 0.299-3.764v-6.235c-0.715 0.628-1.589 1.118-2.62 1.47-1.032 0.354-2.184 0.647-3.453 0.883-1.27 0.236-2.579 0.432-3.927 0.588-1.351 0.158-2.699 0.353-4.048 0.589-1.351 0.234-2.619 0.548-3.81 0.941-1.19 0.393-2.243 0.922-3.155 1.588-0.913 0.667-1.647 1.511-2.202 2.529-0.556 1.021-0.834 2.315-0.834 3.882 0 1.57 0.278 2.844 0.834 3.824 0.555 0.981 1.31 1.765 2.262 2.353 0.953 0.588 2.063 1 3.333 1.235 1.269 0.235 2.578 0.353 3.929 0.353zm-6.309 11.059c-2.938 0-5.676-0.353-8.215-1.059-2.541-0.705-4.762-1.803-6.667-3.293-1.904-1.49-3.393-3.373-4.464-5.648-1.071-2.274-1.607-4.98-1.607-8.118 0-3.45 0.613-6.294 1.845-8.53 1.231-2.235 2.817-4.018 4.763-5.353 1.943-1.332 4.165-2.332 6.666-2.999 2.5-0.665 5.019-1.194 7.559-1.589 2.54-0.392 5.039-0.705 7.501-0.94 2.459-0.235 4.643-0.589 6.546-1.06 1.905-0.47 3.413-1.156 4.525-2.059 1.11-0.899 1.625-2.2148 1.548-3.9399 0-1.7252-0.299-3.1365-0.893-4.2365-0.596-1.0964-1.39-1.9406-2.382-2.5291-0.993-0.5884-2.142-0.9791-3.452-1.1757-1.309-0.1954-2.719-0.2948-4.225-0.2948-3.335 0-5.954 0.7057-7.858 2.1182-1.905 1.4114-3.018 3.764-3.334 7.0591h-16.904c0.238-3.8433 1.229-7.078 2.976-9.7066 1.745-2.6261 3.967-4.7242 6.666-6.2942 2.697-1.5677 5.715-2.6854 9.048-3.3532 3.334-0.6654 6.745-0.9993 10.238-0.9993 3.095 0 6.23 0.2167 9.405 0.6465 3.173 0.4321 6.071 1.2764 8.69 2.5302 2.619 1.2551 4.763 3.0205 6.429 5.2938 1.667 2.2757 2.5 5.2168 2.5 8.8233v31.648c0 2.745 0.158 5.373 0.476 7.882 0.317 2.511 0.873 4.394 1.667 5.646h-17.142c-0.319-0.941-0.578-1.9-0.774-2.882-0.199-0.979-0.34-1.979-0.417-3-2.7 2.747-5.875 4.667-9.524 5.765-3.652 1.098-7.381 1.647-11.19 1.647z" clip-rule="evenodd" fill="#FF8300" fill-rule="evenodd"/>
<path d="m750.74 129.32c1.407 0 2.775-0.095 4.105-0.289 1.329-0.193 2.501-0.561 3.518-1.103 1.016-0.541 1.836-1.335 2.463-2.379 0.626-1.045 0.939-2.418 0.939-4.119 0-1.702-0.333-3.094-0.997-4.178-0.665-1.083-1.545-1.896-2.639-2.438-1.095-0.541-2.347-0.909-3.754-1.102s-2.854-0.29-4.339-0.29h-11.611v15.898h12.315zm-1.29-25.183c1.25 0 2.463-0.076 3.635-0.232 1.174-0.154 2.229-0.482 3.167-0.987 0.939-0.502 1.681-1.198 2.229-2.089 0.546-0.8878 0.82-2.106 0.82-3.6548 0-1.4693-0.274-2.6501-0.82-3.5401-0.548-0.8877-1.273-1.5663-2.17-2.0299-0.899-0.4649-1.956-0.7732-3.167-0.9286-1.213-0.1553-2.444-0.2324-3.694-0.2324h-11.025v13.694h11.025zm-27.445-24.139h34.834c2.657 0 5.16 0.2908 7.506 0.8701 2.345 0.5805 4.398 1.4705 6.158 2.67 1.759 1.2007 3.145 2.767 4.163 4.7 1.015 1.9341 1.525 4.2175 1.525 6.8466 0 2.9421-0.745 5.4743-2.229 7.6013-1.486 2.129-3.479 3.734-5.982 4.817 3.127 0.852 5.748 2.457 7.859 4.815 2.111 2.362 3.166 5.63 3.166 9.808 0 2.941-0.526 5.512-1.583 7.716-1.055 2.206-2.521 4.063-4.398 5.572-1.877 1.508-4.066 2.651-6.569 3.423-2.502 0.774-5.159 1.161-7.974 1.161h-36.476v-60z" clip-rule="evenodd" fill="#FF8300" fill-rule="evenodd"/>
<path d="M790 80H806.436V104.488L828.428 80H847.759L822.758 106.46L851 140H831.09L809.909 115.049L806.436 118.878V140H790V80Z" clip-rule="evenodd" fill="#FF8300" fill-rule="evenodd"/>
<path d="m881.81 130.94c3.278 0 5.813-0.548 7.609-1.647 1.795-1.097 3.121-2.412 3.981-3.941 0.857-1.53 1.384-3.078 1.58-4.648 0.194-1.567 0.293-2.822 0.293-3.764v-6.235c-0.702 0.628-1.562 1.118-2.575 1.47-1.016 0.354-2.148 0.647-3.396 0.883-1.249 0.236-2.536 0.432-3.862 0.588-1.329 0.158-2.654 0.353-3.981 0.589-1.327 0.234-2.575 0.548-3.746 0.941-1.17 0.393-2.206 0.922-3.102 1.588-0.898 0.667-1.62 1.511-2.166 2.529-0.546 1.021-0.82 2.315-0.82 3.882 0 1.57 0.274 2.844 0.82 3.824 0.546 0.981 1.288 1.765 2.225 2.353 0.936 0.588 2.028 1 3.277 1.235 1.248 0.235 2.536 0.353 3.863 0.353zm-6.204 11.059c-2.889 0-5.581-0.353-8.077-1.059-2.499-0.705-4.683-1.803-6.556-3.293-1.872-1.49-3.337-3.373-4.39-5.648-1.053-2.274-1.58-4.98-1.58-8.118 0-3.45 0.603-6.294 1.814-8.53 1.21-2.235 2.77-4.018 4.683-5.353 1.911-1.332 4.097-2.332 6.556-2.999 2.458-0.665 4.935-1.194 7.432-1.589 2.498-0.392 4.956-0.705 7.377-0.94 2.417-0.235 4.565-0.589 6.437-1.06 1.873-0.47 3.355-1.156 4.449-2.059 1.092-0.899 1.599-2.2148 1.522-3.9399 0-1.7252-0.293-3.1365-0.878-4.2365-0.585-1.0964-1.366-1.9406-2.342-2.5291-0.977-0.5884-2.106-0.9791-3.394-1.1757-1.288-0.1954-2.674-0.2948-4.155-0.2948-3.279 0-5.855 0.7057-7.727 2.1182-1.873 1.4114-2.967 3.764-3.278 7.0591h-16.623c0.235-3.8433 1.209-7.078 2.927-9.7066 1.715-2.6261 3.901-4.7242 6.555-6.2942 2.652-1.5677 5.62-2.6854 8.897-3.3532 3.278-0.6654 6.632-0.9993 10.067-0.9993 3.044 0 6.127 0.2167 9.249 0.6465 3.119 0.4321 5.969 1.2764 8.545 2.5302 2.575 1.2551 4.683 3.0205 6.322 5.2938 1.639 2.2757 2.457 5.2168 2.457 8.8233v31.648c0 2.745 0.156 5.373 0.469 7.882 0.311 2.511 0.858 4.394 1.639 5.646h-16.857c-0.313-0.941-0.568-1.9-0.761-2.882-0.195-0.979-0.333-1.979-0.41-3-2.654 2.747-5.776 4.667-9.365 5.765-3.591 1.098-7.257 1.647-11.004 1.647z" clip-rule="evenodd" fill="#FF8300" fill-rule="evenodd"/>
<path d="m324.12 101.83c0 3.537-2.868 6.405-6.405 6.405h-13.216c-2.456 0-4.809-0.987-6.53-2.738l-12.956-13.183c-1.768-1.799-4.812-3.271-7.8-3.271h-17.09l5e-3 -33.83c0-3.541 2.871-6.411 6.412-6.411h23.153c2.357 0 4.8 1.017 6.398 2.75l25.036 30.379c1.782 1.933 2.993 4.519 2.993 7.149v12.75zm22.506-22.243c-8.475-10.261-33.285-40.293-40.497-48.978-1.218-1.467-3.022-2.311-4.929-2.311h-44.903v-18.593c0-5.358-4.343-9.702-9.701-9.702h-168.04c-5.358 0-9.701 4.344-9.701 9.701l-0.032 39.098-19.984-0.056c-5.149 0-9.646 3.885-9.979 9.024-0.365 5.631 4.095 10.313 9.648 10.313h20.347v20.832c0 0.018-0.014 0.032-0.032 0.032h-58.822c-5.15 0-9.646 3.886-9.98 9.025-0.365 5.631 4.095 10.312 9.648 10.312h59.153c0.018 0 0.033 0.015 0.033 0.033v38.84c0 5.358 4.343 9.701 9.701 9.701h19.585c0.076-7.354 2.7571-14.093 7.1671-19.337h-17.084c-0.017 0-0.032-0.014-0.032-0.032v-22.819c0-3.512 2.873-6.386 6.386-6.386h82.862c5.149 0 9.646-3.886 9.979-9.025 0.364-5.631-4.095-10.312-9.648-10.312h-89.547c-0.018 0-0.032-0.014-0.032-0.032v-14.418c0-3.543 2.872-6.414 6.414-6.414h105.87c5.15 0 9.646-3.886 9.979-9.025 0.365-5.631-4.095-10.312-9.648-10.312h-112.61v-22.995c0-3.541 2.87-6.411 6.41-6.411h135.89c3.571 0 6.465 2.895 6.465 6.466v111.68c0 0.018-0.014 0.032-0.032 0.032h-84.795c4.41 5.244 7.092 11.983 7.168 19.337h104.88c0-16.906 13.706-30.611 30.611-30.611 16.378 0 29.752 12.862 30.572 29.036 0.044 0.875 0.739 1.575 1.616 1.575h12.169c6.927 0 10.337-4.532 10.337-11.459 0-16.784 0-46.79-1e-3 -57.852 0-2.908-1.012-5.718-2.864-7.96z" clip-rule="evenodd" fill="#FF8300" fill-rule="evenodd"/>
<path d="m294.32 166.99c-5.412 0-9.816-4.404-9.816-9.816 0-5.413 4.404-9.817 9.816-9.817 5.413 0 9.816 4.404 9.816 9.817 0 5.412-4.403 9.816-9.816 9.816zm0-36.044c-14.462 0-26.228 11.766-26.228 26.228s11.766 26.228 26.228 26.228 26.228-11.766 26.228-26.228-11.766-26.228-26.228-26.228z" clip-rule="evenodd" fill="#FF8300" fill-rule="evenodd"/>
<path d="m128.69 166.99c-5.413 0-9.816-4.404-9.816-9.816 0-5.413 4.403-9.817 9.816-9.817 5.412 0 9.816 4.404 9.816 9.817 0 5.412-4.404 9.816-9.816 9.816zm0-36.044c-14.462 0-26.228 11.766-26.228 26.228s11.766 26.228 26.228 26.228 26.228-11.766 26.228-26.228-11.766-26.228-26.228-26.228z" clip-rule="evenodd" fill="#FF8300" fill-rule="evenodd"/>
</svg>

<svg width="914" height="184" viewBox="0 0 914 184" fill="none" xmlns="http://www.w3.org/2000/svg">
<path fill-rule="evenodd" clip-rule="evenodd" d="M424.553 127.906V92.3861H408.295V93.9042C408.295 97.6437 408.078 101.228 407.651 104.655C407.221 108.084 406.658 111.256 405.956 114.177C405.253 117.098 404.512 119.726 403.732 122.064C402.953 124.401 402.212 126.349 401.511 127.906H424.553ZM378 127.906H385.252C386.109 126.194 386.987 124.05 387.884 121.48C388.78 118.909 389.598 116.028 390.341 112.833C391.08 109.641 391.685 106.174 392.153 102.434C392.621 98.695 392.855 94.7627 392.855 90.6328V80H441.163V127.906H449V157H433.443V140.409H393.557V157H378V127.906Z" fill="#FF8300"/>
<path fill-rule="evenodd" clip-rule="evenodd" d="M485.942 129.53C488.724 129.53 491.06 128.982 492.953 127.883C494.846 126.785 496.353 125.315 497.474 123.471C498.592 121.629 499.385 119.55 499.848 117.236C500.312 114.924 500.544 112.55 500.544 110.118C500.544 107.688 500.312 105.294 499.848 102.941C499.385 100.589 498.592 98.5108 497.474 96.7064C496.353 94.9031 494.846 93.4326 492.953 92.2947C491.06 91.158 488.724 90.5885 485.942 90.5885C483.161 90.5885 480.843 91.158 478.989 92.2947C477.134 93.4326 475.646 94.9031 474.528 96.7064C473.407 98.5108 472.615 100.589 472.152 102.941C471.688 105.294 471.457 107.688 471.457 110.118C471.457 112.55 471.688 114.924 472.152 117.236C472.615 119.55 473.407 121.629 474.528 123.471C475.646 125.315 477.134 126.785 478.989 127.883C480.843 128.982 483.161 129.53 485.942 129.53ZM485.942 142C481.228 142 476.979 141.254 473.194 139.766C469.409 138.276 466.164 136.139 463.46 133.353C460.755 130.571 458.669 127.217 457.202 123.295C455.734 119.373 455 114.982 455 110.118C455 105.256 455.734 100.843 457.202 96.8828C458.669 92.9234 460.755 89.5501 463.46 86.7653C466.164 83.9817 469.409 81.8232 473.194 80.2946C476.979 78.7649 481.228 78 485.942 78C490.654 78 494.924 78.7649 498.747 80.2946C502.573 81.8232 505.835 83.9817 508.541 86.7653C511.244 89.5501 513.33 92.9234 514.798 96.8828C516.265 100.843 517 105.256 517 110.118C517 114.982 516.265 119.373 514.798 123.295C513.33 127.217 511.244 130.571 508.541 133.353C505.835 136.139 502.573 138.276 498.747 139.766C494.924 141.254 490.654 142 485.942 142Z" fill="#FF8300"/>
<path fill-rule="evenodd" clip-rule="evenodd" d="M556.706 142C552.078 142 547.883 141.235 544.118 139.707C540.353 138.177 537.137 136.041 534.47 133.294C531.804 130.55 529.725 127.275 528.235 123.471C526.745 119.667 526 115.491 526 110.942C526 106.235 526.687 101.864 528.059 97.8229C529.43 93.7842 531.45 90.2937 534.118 87.3526C536.783 84.4115 540.039 82.1169 543.882 80.4711C547.724 78.8241 552.118 78 557.059 78C560.666 78 564.136 78.4701 567.471 79.4114C570.803 80.3527 573.783 81.7853 576.412 83.7058C579.039 85.6287 581.176 88.0405 582.824 90.9414C584.471 93.8434 585.413 97.2167 585.647 101.059H569.295C568.196 94.079 564.078 90.5885 556.942 90.5885C554.274 90.5885 552.039 91.1971 550.236 92.4119C548.43 93.6279 546.961 95.1968 545.824 97.1172C544.686 99.0401 543.882 101.176 543.412 103.53C542.942 105.883 542.706 108.158 542.706 110.352C542.706 112.55 542.942 114.785 543.412 117.059C543.882 119.334 544.647 121.393 545.706 123.236C546.765 125.079 548.196 126.589 550 127.766C551.803 128.941 554.001 129.53 556.589 129.53C560.589 129.53 563.666 128.412 565.824 126.177C567.98 123.941 569.334 120.941 569.882 117.177H586C584.901 125.256 581.765 131.412 576.588 135.648C571.412 139.883 564.784 142 556.706 142Z" fill="#FF8300"/>
<path fill-rule="evenodd" clip-rule="evenodd" d="M610.104 92.4179H590V80H647V92.4179H626.896V140H610.104V92.4179Z" fill="#FF8300"/>
<path fill-rule="evenodd" clip-rule="evenodd" d="M678.262 130.941C681.595 130.941 684.173 130.393 685.999 129.294C687.825 128.197 689.173 126.882 690.047 125.353C690.92 123.823 691.455 122.275 691.654 120.705C691.852 119.138 691.953 117.883 691.953 116.941V110.706C691.238 111.334 690.364 111.824 689.333 112.176C688.301 112.53 687.149 112.823 685.88 113.059C684.61 113.295 683.301 113.491 681.953 113.647C680.602 113.805 679.254 114 677.905 114.236C676.554 114.47 675.286 114.784 674.095 115.177C672.905 115.57 671.852 116.099 670.94 116.765C670.027 117.432 669.293 118.276 668.738 119.294C668.182 120.315 667.904 121.609 667.904 123.176C667.904 124.746 668.182 126.02 668.738 127C669.293 127.981 670.048 128.765 671 129.353C671.953 129.941 673.063 130.353 674.333 130.588C675.602 130.823 676.911 130.941 678.262 130.941ZM671.953 142C669.015 142 666.277 141.647 663.738 140.941C661.197 140.236 658.976 139.138 657.071 137.648C655.167 136.158 653.678 134.275 652.607 132C651.536 129.726 651 127.02 651 123.882C651 120.432 651.613 117.588 652.845 115.352C654.076 113.117 655.662 111.334 657.608 109.999C659.551 108.667 661.773 107.667 664.274 107C666.774 106.335 669.293 105.806 671.833 105.411C674.373 105.019 676.872 104.706 679.334 104.471C681.793 104.236 683.977 103.882 685.88 103.411C687.785 102.941 689.293 102.255 690.405 101.352C691.515 100.453 692.03 99.1372 691.953 97.4121C691.953 95.6869 691.654 94.2756 691.06 93.1756C690.464 92.0792 689.67 91.235 688.678 90.6465C687.685 90.0581 686.536 89.6674 685.226 89.4708C683.917 89.2754 682.507 89.176 681.001 89.176C677.666 89.176 675.047 89.8817 673.143 91.2942C671.238 92.7056 670.125 95.0582 669.809 98.3533H652.905C653.143 94.51 654.134 91.2753 655.881 88.6467C657.626 86.0206 659.848 83.9225 662.547 82.3525C665.244 80.7848 668.262 79.6671 671.595 78.9993C674.929 78.3339 678.34 78 681.833 78C684.928 78 688.063 78.2167 691.238 78.6465C694.411 79.0786 697.309 79.9229 699.928 81.1767C702.547 82.4318 704.691 84.1972 706.357 86.4705C708.024 88.7462 708.857 91.6873 708.857 95.2938V126.942C708.857 129.687 709.015 132.315 709.333 134.824C709.65 137.335 710.206 139.218 711 140.47H693.858C693.539 139.529 693.28 138.57 693.084 137.588C692.885 136.609 692.744 135.609 692.667 134.588C689.967 137.335 686.792 139.255 683.143 140.353C679.491 141.451 675.762 142 671.953 142Z" fill="#FF8300"/>
<path fill-rule="evenodd" clip-rule="evenodd" d="M750.735 129.322C752.142 129.322 753.51 129.227 754.84 129.033C756.169 128.84 757.341 128.472 758.358 127.93C759.374 127.389 760.194 126.595 760.821 125.551C761.447 124.506 761.76 123.133 761.76 121.432C761.76 119.73 761.427 118.338 760.763 117.254C760.098 116.171 759.218 115.358 758.124 114.816C757.029 114.275 755.777 113.907 754.37 113.714C752.963 113.521 751.516 113.424 750.031 113.424H738.42V129.322H750.735ZM749.445 104.139C750.695 104.139 751.908 104.063 753.08 103.907C754.254 103.753 755.309 103.425 756.247 102.92C757.186 102.418 757.928 101.722 758.476 100.831C759.022 99.9432 759.296 98.725 759.296 97.1762C759.296 95.7069 759.022 94.5261 758.476 93.6361C757.928 92.7484 757.203 92.0698 756.306 91.6062C755.407 91.1413 754.35 90.833 753.139 90.6776C751.926 90.5223 750.695 90.4452 749.445 90.4452H738.42V104.139H749.445ZM722 80H756.834C759.491 80 761.994 80.2908 764.34 80.8701C766.685 81.4506 768.738 82.3406 770.498 83.5401C772.257 84.7408 773.643 86.3071 774.661 88.2401C775.676 90.1742 776.186 92.4576 776.186 95.0867C776.186 98.0288 775.441 100.561 773.957 102.688C772.471 104.817 770.478 106.422 767.975 107.505C771.102 108.357 773.723 109.962 775.834 112.32C777.945 114.682 779 117.95 779 122.128C779 125.069 778.474 127.64 777.417 129.844C776.362 132.05 774.896 133.907 773.019 135.416C771.142 136.924 768.953 138.067 766.45 138.839C763.948 139.613 761.291 140 758.476 140H722V80Z" fill="#FF8300"/>
<path fill-rule="evenodd" clip-rule="evenodd" d="M790 80H806.436V104.488L828.428 80H847.759L822.758 106.46L851 140H831.09L809.909 115.049L806.436 118.878V140H790V80Z" fill="#FF8300"/>
<path fill-rule="evenodd" clip-rule="evenodd" d="M881.807 130.941C885.085 130.941 887.62 130.393 889.416 129.294C891.211 128.197 892.537 126.882 893.397 125.353C894.254 123.823 894.781 122.275 894.977 120.705C895.171 119.138 895.27 117.883 895.27 116.941V110.706C894.568 111.334 893.708 111.824 892.695 112.176C891.679 112.53 890.547 112.823 889.299 113.059C888.05 113.295 886.763 113.491 885.437 113.647C884.108 113.805 882.783 114 881.456 114.236C880.129 114.47 878.881 114.784 877.71 115.177C876.54 115.57 875.504 116.099 874.608 116.765C873.71 117.432 872.988 118.276 872.442 119.294C871.896 120.315 871.622 121.609 871.622 123.176C871.622 124.746 871.896 126.02 872.442 127C872.988 127.981 873.73 128.765 874.667 129.353C875.603 129.941 876.695 130.353 877.944 130.588C879.192 130.823 880.48 130.941 881.807 130.941ZM875.603 142C872.714 142 870.022 141.647 867.526 140.941C865.027 140.236 862.843 139.138 860.97 137.648C859.098 136.158 857.633 134.275 856.58 132C855.527 129.726 855 127.02 855 123.882C855 120.432 855.603 117.588 856.814 115.352C858.024 113.117 859.584 111.334 861.497 109.999C863.408 108.667 865.594 107.667 868.053 107C870.511 106.335 872.988 105.806 875.485 105.411C877.983 105.019 880.441 104.706 882.862 104.471C885.279 104.236 887.427 103.882 889.299 103.411C891.172 102.941 892.654 102.255 893.748 101.352C894.84 100.453 895.347 99.1372 895.27 97.4121C895.27 95.6869 894.977 94.2756 894.392 93.1756C893.807 92.0792 893.026 91.235 892.05 90.6465C891.073 90.0581 889.944 89.6674 888.656 89.4708C887.368 89.2754 885.982 89.176 884.501 89.176C881.222 89.176 878.646 89.8817 876.774 91.2942C874.901 92.7056 873.807 95.0582 873.496 98.3533H856.873C857.108 94.51 858.082 91.2753 859.8 88.6467C861.515 86.0206 863.701 83.9225 866.355 82.3525C869.007 80.7848 871.975 79.6671 875.252 78.9993C878.53 78.3339 881.884 78 885.319 78C888.363 78 891.446 78.2167 894.568 78.6465C897.687 79.0786 900.537 79.9229 903.113 81.1767C905.688 82.4318 907.796 84.1972 909.435 86.4705C911.074 88.7462 911.892 91.6873 911.892 95.2938V126.942C911.892 129.687 912.048 132.315 912.361 134.824C912.672 137.335 913.219 139.218 914 140.47H897.143C896.83 139.529 896.575 138.57 896.382 137.588C896.187 136.609 896.049 135.609 895.972 134.588C893.318 137.335 890.196 139.255 886.607 140.353C883.016 141.451 879.35 142 875.603 142Z" fill="#FF8300"/>
<path fill-rule="evenodd" clip-rule="evenodd" d="M324.117 101.827C324.117 105.364 321.249 108.232 317.712 108.232H304.496C302.04 108.232 299.687 107.245 297.966 105.494L285.01 92.311C283.242 90.512 280.198 89.04 277.21 89.04H260.12L260.125 55.21C260.125 51.669 262.996 48.799 266.537 48.799H289.69C292.047 48.799 294.49 49.816 296.088 51.549L321.124 81.928C322.906 83.861 324.117 86.447 324.117 89.077V101.827ZM346.623 79.584C338.148 69.323 313.338 39.291 306.126 30.606C304.908 29.139 303.104 28.295 301.197 28.295H256.294V9.702C256.294 4.344 251.951 0 246.593 0H78.5559C73.1979 0 68.8549 4.344 68.8549 9.701L68.8229 48.799L48.8389 48.743C43.6899 48.743 39.1929 52.628 38.8599 57.767C38.4949 63.398 42.9549 68.08 48.5079 68.08H68.8549V88.912C68.8549 88.93 68.8409 88.944 68.8229 88.944H10.0009C4.85093 88.944 0.354915 92.83 0.020915 97.969C-0.344085 103.6 4.11593 108.281 9.66893 108.281H68.8219C68.8399 108.281 68.8549 108.296 68.8549 108.314V147.154C68.8549 152.512 73.1979 156.855 78.5559 156.855H98.1409C98.2169 149.501 100.898 142.762 105.308 137.518H88.2239C88.2069 137.518 88.1919 137.504 88.1919 137.486V114.667C88.1919 111.155 91.0649 108.281 94.5779 108.281H177.44C182.589 108.281 187.086 104.395 187.419 99.256C187.783 93.625 183.324 88.944 177.771 88.944H88.2239C88.2059 88.944 88.1919 88.93 88.1919 88.912V74.494C88.1919 70.951 91.0639 68.08 94.6059 68.08H200.474C205.624 68.08 210.12 64.194 210.453 59.055C210.818 53.424 206.358 48.743 200.805 48.743H88.1919V25.748C88.1919 22.207 91.0619 19.337 94.6019 19.337H230.492C234.063 19.337 236.957 22.232 236.957 25.803V137.486C236.957 137.504 236.943 137.518 236.925 137.518H152.13C156.54 142.762 159.222 149.501 159.298 156.855H264.183C264.183 139.949 277.889 126.244 294.794 126.244C311.172 126.244 324.546 139.106 325.366 155.28C325.41 156.155 326.105 156.855 326.982 156.855H339.151C346.078 156.855 349.488 152.323 349.488 145.396C349.488 128.612 349.488 98.606 349.487 87.544C349.487 84.636 348.475 81.826 346.623 79.584Z" fill="#FF8300"/>
<path fill-rule="evenodd" clip-rule="evenodd" d="M294.325 166.989C288.913 166.989 284.509 162.585 284.509 157.173C284.509 151.76 288.913 147.356 294.325 147.356C299.738 147.356 304.141 151.76 304.141 157.173C304.141 162.585 299.738 166.989 294.325 166.989ZM294.325 130.945C279.863 130.945 268.097 142.711 268.097 157.173C268.097 171.635 279.863 183.401 294.325 183.401C308.787 183.401 320.553 171.635 320.553 157.173C320.553 142.711 308.787 130.945 294.325 130.945Z" fill="#FF8300"/>
<path fill-rule="evenodd" clip-rule="evenodd" d="M128.692 166.989C123.279 166.989 118.876 162.585 118.876 157.173C118.876 151.76 123.279 147.356 128.692 147.356C134.104 147.356 138.508 151.76 138.508 157.173C138.508 162.585 134.104 166.989 128.692 166.989ZM128.692 130.945C114.23 130.945 102.464 142.711 102.464 157.173C102.464 171.635 114.23 183.401 128.692 183.401C143.154 183.401 154.92 171.635 154.92 157.173C154.92 142.711 143.154 130.945 128.692 130.945Z" fill="#FF8300"/>
</svg>
